**kern	**kern
*staff2	*staff1
*clefG2	*clefG2
*k[]	*k[]
*M3/4	*M3/4
*C:	*C:
=-	=-
4r	4ee
=35	=35
*^	*
2g	2.c	(8dd#L
.	.	8eeJ
.	.	8ffL
.	.	8eeJ
4e	.	8ddL
.	.	8ccJ
=36	=36	=36
2a	2.c	8ggL
.	.	8ffJ
.	.	8eeL
.	.	8ffJ
4g	.	8dd#L
.	.	8eeJ
=37	=37	=37
2g	[2.c	8ffL
.	.	8eeJ
.	.	8dd#L
.	.	8eeJ
4f	.	8cc#L
.	.	8ddJ
=38	=38	=38
4e	4c]	8bL
.	.	8ccJ
*v	*v	*
4r	8ddL
.	8ccJ
4r	8bL
.	8ccJ)
=39	=39
4r	(8cc#L
.	8ddJ
(4b	8eeL
.	8ddJ
4cc	8ffL
.	8eeJ
=40	=40
4a	8ggL
.	8ffJ
4e	8aaL
.	8gg#J
4f)	8bbL
.	8aaJ
=41	=41
*clefF4	*
*^	*
(4A	2.F	8dddL
.	.	8ccc#J
4d	.	8eeeL
.	.	8dddJ
4f)	.	8fffL
.	.	8dddJ)
=42	=42	=42
(4e	2G	(4ccc
4d)	.	4bb)
*v	*v	*
=	=
*-	*-
